assets/symbols/mulberry/auroscope.svg

<svg height="850.394" viewBox="0 0 850.394 850.394" width="850.394" xmlns="http://www.w3.org/2000/svg"><path d="m497.85 172.17 44.78 110.14c-7.17-15.12-22.57-25.58-40.42-25.58h-31.66c-20.49 0-37.77 13.78-43.05 32.58l23.19-117.77v-1.92h47.159v2.55z" fill="#c8c8c8"/><path d="m399.7 90.6v48.43c0 .35.01.7.02 1.04l-118.56-22.71v-19.12l118.54-12.74.41.07c-.27 1.64-.41 3.32-.41 5.03z" fill="#231f20"/><path d="m546.92 308.56v435.32c0 24.71-20.01 44.72-44.71 44.72h-31.66c-24.7 0-44.72-20.01-44.72-44.72v-435.32zm-119.42-19.25c5.28-18.8 22.56-32.58 43.05-32.58h31.66c17.85 0 33.25 10.46 40.42 25.58l1.91 4.7.03.09c1.52 4.51 2.35 9.33 2.35 14.34v7.12h-121.09v-7.12c0-4.2.58-8.27 1.67-12.13z" fill="#c8c8c8"/><path d="m544.54 287.01-1.91-4.7c.72 1.52 1.36 3.09 1.91 4.7z" fill="#fff"/><path d="m399.72 140.07c-.01-.34-.02-.69-.02-1.04v-48.43c0-1.71.14-3.39.41-5.03 2.4-14.51 15-25.57 30.18-25.57h76.479c16.9 0 30.591 13.7 30.591 30.6v48.43c0 16.89-13.69 30.59-30.591 30.59h-76.479c-16.54 0-30.02-13.14-30.57-29.55z" fill="#c8c8c8"/><g fill="none"><g stroke="#231f20" stroke-width="21"><path d="m544.57 287.1c1.52 4.51 2.35 9.33 2.35 14.34v442.44c0 24.71-20.01 44.72-44.71 44.72h-31.66c-24.7 0-44.72-20.01-44.72-44.72v-442.44c0-4.2.58-8.27 1.67-12.13 5.28-18.8 22.56-32.58 43.05-32.58h31.66c17.85 0 33.25 10.46 40.42 25.58.72 1.52 1.36 3.09 1.91 4.7m-144.43-201.44c2.4-14.51 15-25.57 30.18-25.57h76.479c16.9 0 30.591 13.7 30.591 30.6v48.43c0 16.89-13.69 30.59-30.591 30.59h-76.479c-16.54 0-30.02-13.14-30.57-29.55-.01-.34-.02-.69-.02-1.04v-48.43c0-1.71.14-3.39.41-5.03z"/><path d="m497.85 172.17 44.78 110.14 1.91 4.7.03.09.44 1.07m-94.32-116.63-23.19 117.77-1.03 5.23m-26.77-209.04-118.54 12.74v19.12l118.56 22.71 1.25.24m25.5 168.25h118.53"/></g><path d="m0 0h850.394v850.394h-850.394z"/></g></svg>

<svg xmlns="http://www.w3.org/2000/svg" width="850.394" height="850.394" viewBox="0 0 850.394 850.394" overflow="visible"><path d="M497.85 172.17l44.78 110.14c-7.17-15.12-22.57-25.58-40.42-25.58h-31.66c-20.49 0-37.77 13.78-43.05 32.58l23.19-117.77v-1.92h47.159v2.55z" fill="#c8c8c8"/><path d="M399.7 90.6v48.43c0 .35.01.7.02 1.04l-118.56-22.71V98.24L399.7 85.5l.41.07c-.27 1.64-.41 3.32-.41 5.03z" fill="#231f20"/><path d="M546.92 308.56v435.32c0 24.71-20.01 44.72-44.71 44.72h-31.66c-24.7 0-44.72-20.01-44.72-44.72V308.56h121.09zM427.5 289.31c5.28-18.8 22.56-32.58 43.05-32.58h31.66c17.85 0 33.25 10.46 40.42 25.58l1.91 4.7.03.09c1.52 4.51 2.35 9.33 2.35 14.34v7.12H425.83v-7.12c0-4.2.58-8.27 1.67-12.13z" fill="#c8c8c8"/><path d="M544.54 287.01l-1.91-4.7c.72 1.52 1.36 3.09 1.91 4.7z" fill="#fff"/><path d="M399.72 140.07c-.01-.34-.02-.69-.02-1.04V90.6c0-1.71.14-3.39.41-5.03 2.4-14.51 15-25.57 30.18-25.57h76.479c16.9 0 30.591 13.7 30.591 30.6v48.43c0 16.89-13.69 30.59-30.591 30.59H430.29c-16.54 0-30.02-13.14-30.57-29.55z" fill="#c8c8c8"/><g fill="none" stroke="#231f20" stroke-width="21"><path d="M544.57 287.1c1.52 4.51 2.35 9.33 2.35 14.34v442.44c0 24.71-20.01 44.72-44.71 44.72h-31.66c-24.7 0-44.72-20.01-44.72-44.72V301.44c0-4.2.58-8.27 1.67-12.13 5.28-18.8 22.56-32.58 43.05-32.58h31.66c17.85 0 33.25 10.46 40.42 25.58.72 1.52 1.36 3.09 1.91 4.7M400.11 85.57c2.4-14.51 15-25.57 30.18-25.57h76.479c16.9 0 30.591 13.7 30.591 30.6v48.43c0 16.89-13.69 30.59-30.591 30.59H430.29c-16.54 0-30.02-13.14-30.57-29.55-.01-.34-.02-.69-.02-1.04V90.6c0-1.71.14-3.39.41-5.03z"/><path d="M497.85 172.17l44.78 110.14 1.91 4.7.03.09.44 1.07M450.69 171.54L427.5 289.31l-1.03 5.23M399.7 85.5L281.16 98.24v19.12l118.56 22.71 1.25.24M426.47 308.56H545"/></g><path fill="none" d="M0 0h850.394v850.394H0z"/></svg>
